svgs/regular/hourglass-end.svg

<svg xmlns="http://www.w3.org/2000/svg" viewBox="0 0 384 512"><!--! Font Awesome Pro 6.2.0 by @fontawesome - https://fontawesome.com License - https://fontawesome.com/license (Commercial License) Copyright 2022 Fonticons, Inc. --><path d="M0 24C0 10.75 10.75 0 24 0H360C373.3 0 384 10.75 384 24C384 37.25 373.3 48 360 48H352V66.98C352 107.3 335.1 145.1 307.5 174.5L225.9 256L307.5 337.5C335.1 366 352 404.7 352 445V464H360C373.3 464 384 474.7 384 488C384 501.3 373.3 512 360 512H24C10.75 512 0 501.3 0 488C0 474.7 10.75 464 24 464H32V445C32 404.7 48.01 366 76.52 337.5L158.1 256L76.52 174.5C48.01 145.1 32 107.3 32 66.98V48H24C10.75 48 0 37.25 0 24V24zM304 66.98V48H80V66.98C80 94.56 90.96 121 110.5 140.5L192 222.1L273.5 140.5C293 121 304 94.56 304 66.98V66.98z"/></svg>

<svg xmlns="http://www.w3.org/2000/svg" viewBox="0 0 384 512"><!--! Font Awesome Pro 6.3.0 by @fontawesome - https://fontawesome.com License - https://fontawesome.com/license (Commercial License) Copyright 2023 Fonticons, Inc. --><path d="M0 24C0 10.7 10.7 0 24 0H360c13.3 0 24 10.7 24 24s-10.7 24-24 24h-8V67c0 40.3-16 79-44.5 107.5L225.9 256l81.5 81.5C336 366 352 404.7 352 445v19h8c13.3 0 24 10.7 24 24s-10.7 24-24 24H24c-13.3 0-24-10.7-24-24s10.7-24 24-24h8V445c0-40.3 16-79 44.5-107.5L158.1 256 76.5 174.5C48 146 32 107.3 32 67V48H24C10.7 48 0 37.3 0 24zM273.5 140.5C293 121 304 94.6 304 67V48H80V67c0 27.6 11 54 30.5 73.5L192 222.1l81.5-81.5z"/></svg>
